X: 12
T: Fox On The Town, The
C: Richard Dwyer
Z: Philip W
S: https://thesession.org/tunes/341#setting49219
R: reel
M: 4/4
L: 1/8
K: Gmaj
|:gedg edBA|G2BG DGBd|gfed e2ef|gefd efga|
beed edBA|G2BG DGBd|g2gb agef|1 g2gf g3f:|2 g2gf g3a||
|:be e2 bage|dB B2 dega|be e2 bage|degb agef|
g3e dedB|GBdg edBd|g2gb agef|1 g2gf g3a:|2 g2gf g4||

%-------------------- TUNE SEPARATOR --------------------%

